X:033
U: ~ = !turn!
%%topmargin 3cm
T:Coleman's Jig
T:Tar Road to Sligo
B:Traditional Irish Fiddle Tunes. Randy Miller and Jack Perron.
Z:Transcribed by Ralph Palmer
R:Jig
L:1/8
M:6/8
K:D
gdB Bcd | ecA {/c}BAG | FGA ABc | ~d3 eag |
gdB Bcd | ecA {/c}BAG | FGA Aag | fec d2 B ||
Adf Adf | ~g3 efg | afd ~d3 | Bed cBc |
Adf Adf | ~g3 efg | afd bge | edc d2 c/2B/2 ||
Adf [d2f2] f | ~g3 efg | afd ~d3 | Bed cBA |
fdB gec | afd bge | a^ga b=gf | edc d2 z |]
